lib/flags/m/TCA.svg

<svg xmlns="http://www.w3.org/2000/svg" fill="none" viewBox="0 0 20 15"><mask id="TCA_svg__a" width="20" height="15" x="0" y="0" mask-type="alpha" maskUnits="userSpaceOnUse"><path fill="#fff" d="M0 0H20V15H0z"/></mask><g mask="url(#TCA_svg__a)"><path fill="#2E42A5" fill-rule="evenodd" d="M0 0V15H20V0H0Z" clip-rule="evenodd"/><mask id="TCA_svg__b" width="20" height="15" x="0" y="0" mask-type="alpha" maskUnits="userSpaceOnUse"><path fill="#fff" fill-rule="evenodd" d="M0 0V15H20V0H0Z" clip-rule="evenodd"/></mask><g mask="url(#TCA_svg__b)"><path fill="#2E42A5" d="M0 0H11V9H0z"/><mask id="TCA_svg__c" width="11" height="9" x="0" y="0" mask-type="alpha" maskUnits="userSpaceOnUse"><path fill="#fff" d="M0 0H11V9H0z"/></mask><g mask="url(#TCA_svg__c)"><path fill="#F7FCFF" d="M-1.25269 8.12494L1.22291 9.21069L11.3062 1.18052L12.612 -0.432938L9.96468 -0.795827L5.85197 2.6646L2.54165 4.99613L-1.25269 8.12494Z"/><path fill="#F50100" d="M-0.913757 8.88555L0.347444 9.51562L12.1431 -0.582947H10.3722L-0.913757 8.88555Z"/><path fill="#F7FCFF" d="M12.5026 8.1248L10.3055 9.52051L-0.0562172 1.18038L-1.36204 -0.433076L1.28526 -0.795966L5.39797 2.66447L8.70828 4.99599L12.5026 8.1248Z"/><path fill="#F50100" d="M12.4182 8.6707L11.157 9.30078L6.13425 4.97706L4.64512 4.49398L-1.48769 -0.427604H0.283185L6.41255 4.37716L8.04064 4.95642L12.4182 8.6707Z"/><mask id="TCA_svg__d" width="13" height="11" x="-1" y="-1" fill="#000" maskUnits="userSpaceOnUse"><path fill="#fff" d="M-1-1H12V10H-1z"/><path fill-rule="evenodd" d="M6 0H5V4H0V5H5V9H6V5H11V4H6V0Z" clip-rule="evenodd"/></mask><path fill="#F50100" fill-rule="evenodd" d="M6 0H5V4H0V5H5V9H6V5H11V4H6V0Z" clip-rule="evenodd"/><path fill="#F7FCFF" d="M5 0V-0.9375H4.0625V0H5ZM6 0H6.9375V-0.9375H6V0ZM5 4V4.9375H5.9375V4H5ZM0 4V3.0625H-0.9375V4H0ZM0 5H-0.9375V5.9375H0V5ZM5 5H5.9375V4.0625H5V5ZM5 9H4.0625V9.9375H5V9ZM6 9V9.9375H6.9375V9H6ZM6 5V4.0625H5.0625V5H6ZM11 5V5.9375H11.9375V5H11ZM11 4H11.9375V3.0625H11V4ZM6 4H5.0625V4.9375H6V4ZM5 0.9375H6V-0.9375H5V0.9375ZM5.9375 4V0H4.0625V4H5.9375ZM0 4.9375H5V3.0625H0V4.9375ZM0.9375 5V4H-0.9375V5H0.9375ZM5 4.0625H0V5.9375H5V4.0625ZM5.9375 9V5H4.0625V9H5.9375ZM6 8.0625H5V9.9375H6V8.0625ZM5.0625 5V9H6.9375V5H5.0625ZM11 4.0625H6V5.9375H11V4.0625ZM10.0625 4V5H11.9375V4H10.0625ZM6 4.9375H11V3.0625H6V4.9375ZM5.0625 0V4H6.9375V0H5.0625Z" mask="url(#TCA_svg__d)"/></g><path fill="#FECA00" fill-rule="evenodd" stroke="#F7FCFF" stroke-width=".5" d="M13.1542 6.27051C13.1542 6.27051 13.708 13.7276 16.2054 13.7276C18.7029 13.7276 19.3171 6.27051 19.3171 6.27051H13.1542Z" clip-rule="evenodd"/><path fill="#CF6900" fill-rule="evenodd" d="M16.1945 6.63864L16.286 6.53535L16.7197 6.81164C16.7825 6.71397 16.8944 6.66854 17.051 6.67603L16.8928 6.43514L17.0216 6.36651L17.3219 6.72797L17.3516 6.73729L17.2755 6.26759L17.4264 6.25L17.525 6.85866C17.5275 6.85854 17.5298 6.85847 17.5322 6.85847C17.5747 6.85847 17.6226 6.87898 17.6718 6.91155L17.779 6.25L17.9299 6.26759L17.8538 6.73729L17.8835 6.72797L18.1838 6.36651L18.3126 6.43514L18.1544 6.67603C18.311 6.66854 18.4229 6.71397 18.4857 6.81164L18.9194 6.53535L19.0109 6.63864L18.5351 6.94178C18.5416 6.97605 18.5449 7.0136 18.5449 7.05443V7.12474L19.2016 6.9808L19.25 7.10295L18.5449 7.3528V7.4381L19.2134 7.38396L19.2335 7.51193L18.5449 7.61215V7.75953L19.2352 7.87359L19.2074 8.00061L18.5449 7.90157V9.3379H18.4433V7.88638L17.9988 7.81994C17.949 8.17139 17.8929 8.61386 17.9008 8.77384C17.9085 8.9319 18.0265 8.99963 18.1094 9.04718C18.1738 9.08417 18.217 9.10895 18.1704 9.15452C18.064 9.25869 17.7982 9.35847 17.5322 9.35847C17.2662 9.35847 17.0039 9.25869 16.9471 9.15452C16.9369 9.13594 16.9382 9.13744 16.9473 9.14789C16.9893 9.19601 17.1968 9.43398 17.213 8.77384C17.2219 8.41162 17.1687 8.08463 17.1076 7.83473L16.7621 7.88638V9.3379H16.6605V7.90157L15.998 8.00061L15.9702 7.87359L16.6605 7.75953V7.61215L15.9719 7.51193L15.992 7.38396L16.6605 7.4381V7.3528L15.9554 7.10295L16.0038 6.9808L16.6605 7.12474V7.05443C16.6605 7.0136 16.6638 6.97605 16.6703 6.94178L16.1945 6.63864ZM17.0637 7.67081C17.0657 7.67776 17.0677 7.68479 17.0698 7.69192L16.7621 7.74275V7.62693L17.0637 7.67081ZM17.0701 7.19645C17.0654 7.20155 17.0609 7.20657 17.0565 7.21151L16.7621 7.147V7.05443C16.7621 7.03596 16.7628 7.01836 16.7643 7.00164L17.0701 7.19645ZM17.2657 7.00301C17.2315 7.03242 17.1978 7.06412 17.1659 7.09591L16.8025 6.86437C16.8535 6.77575 16.954 6.74352 17.1105 6.76671L17.2657 7.00301ZM17.934 7.16311L18.4029 6.86437C18.3519 6.77575 18.2514 6.74352 18.0949 6.76671L17.8773 7.09799C17.8972 7.11992 17.9162 7.14187 17.934 7.16311ZM18.0922 7.22396L18.4411 7.00164C18.4426 7.01836 18.4433 7.03596 18.4433 7.05443V7.147L18.0922 7.22396ZM18.2327 7.46338L18.4433 7.38879V7.44633L18.2327 7.46338ZM18.0706 7.68117L18.4433 7.62693V7.74275L18.0706 7.68117ZM16.7621 7.38879V7.44633L16.9727 7.46338L16.7621 7.38879Z" clip-rule="evenodd"/><path fill="#00A727" fill-rule="evenodd" d="M15.5487 9.90186C15.5487 9.90186 14.7277 11.2769 14.7277 12.1104C14.7277 12.1104 15.2871 12.5541 16.2495 12.5541C17.2118 12.5541 17.7069 12.1104 17.7069 12.1104C17.436 11.1224 16.9748 9.90186 16.9748 9.90186H15.5487Z" clip-rule="evenodd"/><path fill="#E31D1C" fill-rule="evenodd" d="M15.5887 9.52207C15.5887 9.1434 15.8957 8.83643 16.2744 8.83643C16.6531 8.83643 16.96 9.1434 16.96 9.52207V9.99113H15.5887V9.52207Z" clip-rule="evenodd"/><path fill="#FF927F" fill-rule="evenodd" d="M13.4495 8.02087C13.4495 8.02087 14.5331 8.24412 14.5331 8.59615C14.5331 8.94818 14.9695 9.07511 15.0767 8.97994C15.1839 8.88478 15.939 8.81821 15.939 8.35935C15.939 7.9005 16.002 7.77558 15.8186 7.4842C15.6352 7.19282 15.2527 6.20786 15.1647 6.60249C15.0767 6.99711 14.9442 7.28946 14.6995 7.05423C14.4547 6.81899 14.1404 6.32098 14.0301 6.60249C13.9197 6.884 14.3797 7.16656 14.0301 7.16656C13.6804 7.16656 13.9268 7.18502 13.9268 7.42337C13.9268 7.66173 13.9683 7.88641 13.7089 7.88641C13.4495 7.88641 13.4495 8.02087 13.4495 8.02087Z" clip-rule="evenodd"/></g></g></svg>

<svg xmlns="http://www.w3.org/2000/svg" fill="none" viewBox="0 0 20 15"><mask id="TCA_svg__a" width="20" height="15" x="0" y="0" maskUnits="userSpaceOnUse"><path fill="#fff" d="M0 0h20v15H0z"/></mask><g mask="url(#TCA_svg__a)"><path fill="#2E42A5" fill-rule="evenodd" d="M0 0v15h20V0H0z" clip-rule="evenodd"/><mask id="TCA_svg__b" width="20" height="15" x="0" y="0" maskUnits="userSpaceOnUse"><path fill="#fff" fill-rule="evenodd" d="M0 0v15h20V0H0z" clip-rule="evenodd"/></mask><g mask="url(#TCA_svg__b)"><path fill="#2E42A5" d="M0 0h11v9H0z"/><mask id="TCA_svg__c" width="11" height="9" x="0" y="0" maskUnits="userSpaceOnUse"><path fill="#fff" d="M0 0h11v9H0z"/></mask><g mask="url(#TCA_svg__c)"><path fill="#F7FCFF" d="M-1.253 8.125L1.223 9.21l10.083-8.03 1.306-1.614-2.647-.363-4.113 3.46-3.31 2.332-3.795 3.129z"/><path fill="#F50100" d="M-.914 8.886l1.261.63L12.143-.583h-1.77L-.915 8.886z"/><path fill="#F7FCFF" d="M12.503 8.125L10.306 9.52-.056 1.18-1.362-.434l2.647-.363 4.113 3.46 3.31 2.332 3.795 3.129z"/><path fill="#F50100" d="M12.418 8.67l-1.261.63-5.023-4.323-1.489-.483-6.133-4.921H.283l6.13 4.804 1.628.58 4.377 3.714z"/><mask id="TCA_svg__d" width="13" height="11" x="-1" y="-1" fill="#000" maskUnits="userSpaceOnUse"><path fill="#fff" d="M-1-1h13v11H-1z"/><path fill-rule="evenodd" d="M6 0H5v4H0v1h5v4h1V5h5V4H6V0z" clip-rule="evenodd"/></mask><path fill="#F50100" fill-rule="evenodd" d="M6 0H5v4H0v1h5v4h1V5h5V4H6V0z" clip-rule="evenodd"/><path fill="#F7FCFF" d="M5 0v-.938h-.938V0H5zm1 0h.938v-.938H6V0zM5 4v.938h.938V4H5zM0 4v-.938h-.938V4H0zm0 1h-.938v.938H0V5zm5 0h.938v-.938H5V5zm0 4h-.938v.938H5V9zm1 0v.938h.938V9H6zm0-4v-.938h-.938V5H6zm5 0v.938h.938V5H11zm0-1h.938v-.938H11V4zM6 4h-.938v.938H6V4zM5 .937h1V-.938H5V.938zM5.938 4V0H4.063v4h1.875zM0 4.938h5V3.063H0v1.874zM.938 5V4H-.938v1H.938zM5 4.062H0v1.875h5V4.063zM5.938 9V5H4.063v4h1.875zM6 8.062H5v1.876h1V8.062zM5.062 5v4h1.875V5H5.063zM11 4.062H6v1.875h5V4.063zM10.062 4v1h1.876V4h-1.876zM6 4.938h5V3.063H6v1.874zM5.062 0v4h1.875V0H5.063z" mask="url(#TCA_svg__d)"/></g><path fill="#FECA00" fill-rule="evenodd" stroke="#F7FCFF" stroke-width=".5" d="M13.154 6.27s.554 7.457 3.051 7.457c2.498 0 3.112-7.457 3.112-7.457h-6.163z" clip-rule="evenodd"/><path fill="#CF6900" fill-rule="evenodd" d="M16.195 6.639l.091-.104.434.277c.063-.098.174-.143.331-.136l-.158-.24.129-.07.3.362.03.01-.076-.47.15-.018.099.609h.007c.043 0 .09.02.14.053l.107-.662.15.018-.075.47.03-.01.3-.361.129.068-.159.241c.157-.007.269.038.332.136l.433-.277.092.104-.476.303c.007.034.01.072.01.112v.07l.657-.143.048.122-.705.25v.085l.668-.054.02.128-.688.1v.148l.69.114-.028.127-.662-.1v1.437h-.102V7.886L18 7.82c-.05.351-.106.794-.098.954.008.158.125.226.208.273.065.037.108.062.061.108-.106.104-.372.203-.638.203s-.528-.1-.585-.203c-.01-.02-.009-.018 0-.007.042.048.25.286.266-.374a3.622 3.622 0 00-.105-.94l-.346.052v1.452h-.101V7.902L15.998 8l-.028-.127.69-.114v-.148l-.688-.1.02-.128.669.054v-.085l-.706-.25.049-.122.657.144v-.07c0-.041.003-.079.01-.113l-.476-.303zm.869 1.032l.006.02-.308.052v-.116l.302.044zm.006-.475a1.19 1.19 0 00-.014.016l-.294-.065v-.093c0-.018 0-.036.002-.052l.306.194zm.196-.193a2.2 2.2 0 00-.1.093l-.364-.232c.052-.088.152-.12.308-.097l.156.236zm.668.16l.469-.299c-.051-.088-.152-.12-.308-.097l-.218.331c.02.022.04.044.057.065zm.158.061l.35-.222a.592.592 0 01.001.052v.093l-.35.077zm.14.24l.211-.075v.057l-.21.017zm-.161.217l.372-.054v.116l-.372-.062zm-1.309-.292v.057l.21.017-.21-.074z" clip-rule="evenodd"/><path fill="#00A727" fill-rule="evenodd" d="M15.549 9.902s-.821 1.375-.821 2.208c0 0 .56.444 1.522.444s1.457-.444 1.457-.444a29.947 29.947 0 00-.732-2.208h-1.426z" clip-rule="evenodd"/><path fill="#E31D1C" fill-rule="evenodd" d="M15.589 9.522a.686.686 0 011.371 0v.469h-1.371v-.469z" clip-rule="evenodd"/><path fill="#FF927F" fill-rule="evenodd" d="M13.45 8.02s1.083.224 1.083.576.437.48.544.384c.107-.095.862-.162.862-.62 0-.46.063-.584-.12-.876-.184-.291-.566-1.276-.654-.881-.088.394-.22.687-.465.451-.245-.235-.56-.733-.67-.451-.11.281.35.564 0 .564s-.103.018-.103.256c0 .239.041.463-.218.463-.26 0-.26.135-.26.135z" clip-rule="evenodd"/></g></g></svg>
